X: 013
M: 6/8
L: 1/8
K: G
d2d cAc | B2B G2B |\
d2d cAc | B3 :|\
|: B !f!BcA |\
!segno!!+!B2B BcA | !+!B2B BcA |\
d2G GAF | !segno!G3 :|

